assets/icons/qvision/room_service.svg

<svg xmlns="http://www.w3.org/2000/svg" height="24" viewBox="0 0 24 24" width="24"><path d="M0 0h24v24H0V0z" fill="none"/><path d="M2 17h20v2H2zm11.84-9.21c.1-.24.16-.51.16-.79 0-1.1-.9-2-2-2s-2 .9-2 2c0 .28.06.55.16.79C6.25 8.6 3.27 11.93 3 16h18c-.27-4.07-3.25-7.4-7.16-8.21z"/></svg>

<svg width="24" height="24" viewBox="0 0 24 24" fill="none" xmlns="http://www.w3.org/2000/svg">
<g clip-path="url(#clip0_147_6276)">
<path d="M2 17H22V19H2V17ZM13.84 7.79C13.94 7.55 14 7.28 14 7C14 5.9 13.1 5 12 5C10.9 5 10 5.9 10 7C10 7.28 10.06 7.55 10.16 7.79C6.25 8.6 3.27 11.93 3 16H21C20.73 11.93 17.75 8.6 13.84 7.79Z" fill="#323232"/>
</g>
<defs>
<clipPath id="clip0_147_6276">
<rect width="24" height="24" fill="white"/>
</clipPath>
</defs>
</svg>
